X:1
T:A Major James P. Carrell, 1821
T:Benjamin Beddome, 1787          88. 88. (L. M.)
T:Morning Star
T:Transcribed from Songs of Zion, 1821
%%score [ 1 2 3 4 ]
L:1/8
Q:1/4=120
M:4/4
K:A
V:1 treble nm="Tr." snm="Tr."
V:2 treble nm="C." snm="C."
V:3 treble-8 nm="T." snm="T."
V:4 bass nm="B." snm="B."
V:1
"^1.  Ye   worlds   of   light,  that  roll ________   so    near   The Savior's throne of shining bliss,         O     tell ______ how  mean  your  glo–ries" A4 | %1
 c6 e2 | e4 e4 | (c3 B c2) ec | B4 (A2 F2) | E6 d2 | c4 A4 | B4 A4 | G8 | z4 A4 | (e3 f e2) d2 | %11
 c4 (B2 A2) | (e2 c2) (c2 B2) | %13
"^1.  are,   How   faint   and     few,       com–pared ____ with  his!   How   faint     and       few,    com – pared  with his!" c4 (d2 c2) | %14
 B4 E4 | A6 B2 | (c3 B A2) B2 | c4 (e2 d2) | c4 (3(c2 B2 c2) | e4 A4 | A4 G4 | A8 |] %22
V:2
"^2.  We   sing      the  bright  and mor     –     ning  star,    Je–sus, the source of light and love;         His   pu  –  rest  rays,  dif – fused  from" E4 | %1
 E6 A2 | A4 A4 | (F2 E2 F2) A2 | E4 A4 | c6 F2 | E4 E4 | D4 F4 | E8 | z4 A4 | A6 F2 | E4 (F2 E2) | %12
 E4 E4 | %13
"^2.   far,  Con – duct   us        to            the realms _____  a – bove.   Con – duct   us            to       the      realms  a – bove." E4 F4 | %14
 E4 E4 | F6 G2 | (A3 G F2) F2 | E4 (C2 D2) | E4 (3(F2 E2 F2) | A4 F4 | E4 E4 | E8 |] %22
V:3
"^3. Midst gloo – my  darkness  spread _____  a – broad,  This light directs the pilgrim's way;        Still,  as _______  he  goes,  he     finds   the" E4 | %1
 (A4 cB) A2 | c4 (A2 G2) | (F3 G A2) F2 | E4 A4 | c6 d2 | e4 e4 | d4 c4 | B8 | z4 A4 | %10
 (c3 d c2) f2 | e4 (d2 c2) | (B2 A2) (A2 B2) | %13
"^3.  road   That   leads   him    safe         to end      –     less   day,   That    leads  him _____   safe   to ______  end – less  day." c4 A4 | %14
 E4 (B2 cd) | (c2 B2 A2) E2 | (A3 B c2) d2 | e4 (c2 d2) | e4 (c2 BA) | c4 (d2 fd) | c4 B4 | A8 |] %22
V:4
"^4. When we  shall  reach  the  glorious  height,  Where this bright star shall brightest shine,   Leave  far _____  behind  these  scenes  of" E,4 | %1
 A,,6 A,2 | A,4 C4 | (C3 B, A,2) D,2 | E,4 D,4 | C,6 D,2 | E,4 A,4 | G,4 A,4 | E,8 | z4 A,4 | %10
 (E,3 F, A,2) D,2 | C,4 (F,2 A,2) | E,4 E,4 | %13
"^4.  night,  And  view   the     lus    –    ter all _________   di – vine,   And   view  the ______   lus –  ter           all   di  – vine." A,4 A,4 | %14
 G,4 G,4 | A,6 E,2 | (F,3 G, A,2) B,2 | %17
 E,4"^____________________________________________________\nEdited by B. C. Johnston, 2017\n   1. Measure 6, Counter: first note changed from G# to C#." C2 B,2 | %18
 A,4 (E,2 D,2) | C,4 D,4 | E,4 E,4 | A,,8 |] %22

